!!!OTL: IHR BRUEDER JETZT GEHTS IN DIE WEITE WELT
!!!ARE: Europa, Mitteleuropa, Deutschland, Schleswig - Holstein
!!!SCT: E1337
!!!YEM: Copyright 1995, estate of Helmut Schaffrath.
**kern
*ICvox
*Ivox
*M4/4
*k[f#]
*G:
{4d
=1
4g
8g
8g
8g
8a
8b
8cc
=2
8ee
8dd
8dd
8dd
4dd}
{8gg
8gg
=3
4.dd
8ee
4.cc
8cc
=4
8b
8cc
8dd
8b
4g}
{8b
8cc
=5
4dd
4dd
4cc
4cc
=6
4b
8dd
8b
4a}
{8b
8cc
=7
4dd
4dd
4cc
4cc
=8
4b
8dd
8b
4a}
{8b
8a
=9
4g
4g
4ee
4ee
=10
2dd}
{4.ee
8ee
=11
8ee
8dd
8cc
8b
8dd
8cc
4a
=12
4g
2r}
{8b
8a
=13
4g
4g
4ee
4ee
=14
2dd}
{4.ee
8ee
=15
8ee
8dd
8cc
8b
8dd
8cc
4a
=16
4g
2r}
==
!!!AGN: Staende -, Soldaten -, Kriegs - Lied
!!!ONB: ESAC (Essen Associative Code) Database: ERK3
!!!AMT: simple quadruple
!!!AIN: vox
!!!EED: Helmut Schaffrath
!!!EEV: 1.0
*-
